src/assets/svgs/s1.svg

<svg width="52" height="52" viewBox="0 0 52 52" fill="none" xmlns="http://www.w3.org/2000/svg">
<path d="M36.8334 34.6667C35.6417 34.6667 34.6667 33.6917 34.6667 32.5H17.3334C17.3334 33.6917 16.3584 34.6667 15.1667 34.6667C13.975 34.6667 13 33.6917 13 32.5H4.33337V39C4.33337 41.3833 6.28337 43.3333 8.66671 43.3333H43.3334C45.7167 43.3333 47.6667 41.3833 47.6667 39V32.5H39C39 33.6917 38.025 34.6667 36.8334 34.6667Z" fill="white"/>
<path d="M43.3334 17.3333H36.8334V13C36.8334 10.6167 34.8834 8.66666 32.5 8.66666H19.5C17.1167 8.66666 15.1667 10.6167 15.1667 13V17.3333H8.66671C6.28337 17.3333 4.33337 19.2833 4.33337 21.6667V30.3333H13V28.1667C13 26.975 13.975 26 15.1667 26C16.3584 26 17.3334 26.975 17.3334 28.1667V30.3333H34.6667V28.1667C34.6667 26.975 35.6417 26 36.8334 26C38.025 26 39 26.975 39 28.1667V30.3333H47.6667V21.6667C47.6667 19.2833 45.7167 17.3333 43.3334 17.3333ZM32.5 17.3333H19.5V13H32.5V17.3333Z" fill="white"/>
</svg>

<svg width="52" height="52" fill="none" xmlns="http://www.w3.org/2000/svg"><path d="M36.833 34.667a2.173 2.173 0 0 1-2.166-2.167H17.333a2.173 2.173 0 0 1-2.166 2.167A2.173 2.173 0 0 1 13 32.5H4.333V39a4.346 4.346 0 0 0 4.334 4.333h34.666A4.346 4.346 0 0 0 47.667 39v-6.5H39a2.173 2.173 0 0 1-2.167 2.167ZM43.333 17.333h-6.5V13A4.346 4.346 0 0 0 32.5 8.667h-13A4.346 4.346 0 0 0 15.167 13v4.333h-6.5a4.346 4.346 0 0 0-4.334 4.334v8.666H13v-2.166c0-1.192.975-2.167 2.167-2.167 1.191 0 2.166.975 2.166 2.167v2.166h17.334v-2.166c0-1.192.975-2.167 2.166-2.167 1.192 0 2.167.975 2.167 2.167v2.166h8.667v-8.666a4.346 4.346 0 0 0-4.334-4.334Zm-10.833 0h-13V13h13v4.333Z" fill="#fff"/></svg>
